assets/illustrations/multisize/20/vector.svg

<?xml version="1.0" encoding="utf-8"?>
<!-- Generator: Adobe Illustrator 21.1.0, SVG Export Plug-In . SVG Version: 6.00 Build 0)  -->
<svg version="1.1" xmlns="http://www.w3.org/2000/svg" xmlns:xlink="http://www.w3.org/1999/xlink" x="0px" y="0px"
	 viewBox="0 0 20 20" enable-background="new 0 0 20 20" xml:space="preserve">
<g id="TEMPLATE" display="none">
	<g display="inline">
		<path fill="#D0D0D0" d="M20,0v20H0V0H20 M21-1h-1H0h-1v1v20v1h1h20h1v-1V0V-1L21-1z"/>
	</g>
	<g display="inline" opacity="0.1">
		<path fill="#FF3A6D" d="M19,1v18H1V1H19 M20,0H0v20h20V0L20,0z"/>
	</g>
</g>
<g id="ICONS">
	<g>
		<polygon fill="#FFFFFF" points="16,18 4,18 4,2 14,2 16,4 		"/>
		<path fill="#949494" d="M14,1H3v18h14V4L14,1z M14,2.5L15.5,4H14V2.5z M16,18H4V2h9v3h3V18z"/>
	</g>
	<circle fill="#0078D7" cx="7.5" cy="9.5" r="1.5"/>
	<path fill="#0078D7" d="M7,15v1H6v-1H7 M8,14H7.2906H5.7094H5v0.7094v1.5812V17h0.7094h1.5812H8v-0.7094v-1.5812V14L8,14z"/>
	<path fill="#0078D7" d="M14,8v1h-1V8H14 M15,7h-0.7094h-1.5812H12v0.7094v1.5812V10h0.7094h1.5812H15V9.2906V7.7094V7L15,7z"/>
	<g>
		<path fill="#0078D7" d="M15,14l-2.5,0.5L12,17l-2.5-5.5L15,14z"/>
	</g>
	<rect x="6" y="12" fill="#C8C8C8" width="1" height="1"/>
	<rect x="10" y="8" fill="#C8C8C8" width="1" height="1"/>
</g>
</svg>

<svg id="5563d5ce-4067-4e62-8377-81e6e0781a17" data-name="ICONS" xmlns="http://www.w3.org/2000/svg" viewBox="0 0 20 20"><title>FileTypeIcons_Master_All_NEW</title><polygon points="16 18 4 18 4 2 14 2 16 4 16 18" fill="#fff"/><path d="M14,1H3V19H17V4Zm0,1.5L15.5,4H14ZM16,18H4V2h9V5h3Z" fill="#949494"/><circle cx="7.5" cy="9.5" r="1.5" fill="#0078d7"/><path d="M7,15v1H6V15H7m1-1H5v3H8V14Z" fill="#0078d7"/><path d="M14,8V9H13V8h1m1-1H12v3h3V7Z" fill="#0078d7"/><path d="M15,14l-2.5.5L12,17,9.5,11.5Z" fill="#0078d7"/><rect x="6" y="12" width="1" height="1" fill="#c8c8c8"/><rect x="10" y="8" width="1" height="1" fill="#c8c8c8"/></svg>
